assets/icon-leaf.svg

<svg
  class="icon icon-accordion icon-leaf"
  aria-hidden="true"
  focusable="false"
  xmlns="http://www.w3.org/2000/svg"
  width="20"
  height="20"
  viewBox="0 0 20 20"
>
  <path d="M18.6307 0.0851008C18.9214 0.143319 19.2573 0.251631 19.499 0.483071C19.7487 0.722288 19.8616 1.06444 19.9202 1.35568C19.9821 1.66275 20.0008 2.00418 20 2.32523C19.9986 2.89096 19.9355 3.45932 19.9011 3.76888C19.8965 3.81064 19.8924 3.8477 19.889 3.8794L19.8885 3.88469C19.7574 5.00604 19.5546 6.53586 19.2559 8.16345C18.9577 9.77538 18.5618 11.5447 18.0423 13.1175L18.0415 13.1198C17.54 14.6143 16.835 16.2292 15.7876 17.2779C12.1807 20.8897 6.31722 20.917 2.70668 17.3017C-0.903844 13.6864 -0.876728 7.8151 2.73025 4.20335C3.77726 3.15495 5.37751 2.44898 6.88416 1.94609L6.88527 1.94573C8.4557 1.42559 10.21 1.02928 11.8328 0.73059C13.4582 0.431407 14.986 0.228254 16.1059 0.097027L16.1111 0.0964089C16.1231 0.0951308 16.1358 0.0937998 16.1492 0.09237C16.4416 0.0610531 17.0517 -0.0042707 17.6652 0.000220251C17.9855 0.00256445 18.3248 0.0238389 18.6307 0.0851008ZM16.2207 1.10269C15.114 1.23241 13.6107 1.4325 12.0155 1.72612C10.4166 2.02043 8.71247 2.40674 7.20334 2.90653C5.72522 3.39993 4.31684 4.04614 3.44505 4.91909C0.229287 8.13911 0.209266 13.3695 3.42148 16.5859C6.63368 19.8024 11.8571 19.7822 15.0728 16.5622C15.9442 15.6897 16.5895 14.2687 17.0829 12.7984C17.5818 11.2879 17.9676 9.5703 18.2616 7.98044C18.5549 6.38318 18.7546 4.8779 18.8841 3.76969C18.8878 3.73473 18.8921 3.69563 18.8969 3.65288C18.9315 3.33899 18.9879 2.82875 18.9891 2.32275C18.9898 2.03445 18.9722 1.76875 18.9293 1.5558C18.8832 1.32703 18.8229 1.23626 18.8002 1.21454C18.7694 1.18504 18.6656 1.12434 18.4325 1.07766C18.2146 1.03402 17.9461 1.01452 17.6578 1.01241C17.1035 1.00835 16.5429 1.06826 16.2505 1.09951C16.2402 1.10061 16.2303 1.10167 16.2207 1.10269Z" />
  <path d="M19.4297 0.501734C19.6261 0.7004 19.6244 1.02084 19.426 1.21747L0.860985 19.6161C0.662582 19.8127 0.342561 19.811 0.146198 19.6124C-0.0501654 19.4137 -0.0485124 19.0933 0.14989 18.8966L18.7149 0.498038C18.9133 0.301414 19.2334 0.303069 19.4297 0.501734Z" />
  <path d="M5.62257 2.4772H6.12801V13.6663H17.3961V14.1724H5.62257V2.4772Z" />
  <path d="M10.1879 1.18752H10.6933L10.6933 9.14731H18.7842V9.65342H10.1879L10.1879 1.18752Z" />
</svg>

<svg xmlns="http://www.w3.org/2000/svg" class="icon icon-accordion icon-leaf" viewBox="0 0 20 20"><path d="M18.63.085c.291.058.627.167.869.398.25.24.363.581.421.873.062.307.08.648.08.97a14 14 0 0 1-.099 1.443l-.012.11v.006a67 67 0 0 1-.633 4.278c-.298 1.612-.694 3.382-1.214 4.954v.003c-.502 1.494-1.207 3.11-2.254 4.158-3.607 3.612-9.47 3.639-13.081.024-3.61-3.616-3.584-9.487.023-13.099C3.777 3.155 5.378 2.45 6.884 1.946h.001c1.57-.52 3.325-.917 4.948-1.215a66 66 0 0 1 4.273-.634h.005l.038-.005A14 14 0 0 1 17.665 0c.32.003.66.024.966.085m-2.41 1.018c-1.106.13-2.61.33-4.204.623-1.6.294-3.304.68-4.813 1.18-1.478.494-2.886 1.14-3.758 2.013C.229 8.14.209 13.37 3.421 16.586s8.436 3.196 11.652-.024c.871-.872 1.517-2.293 2.01-3.764.499-1.51.885-3.228 1.179-4.818a66 66 0 0 0 .635-4.327c.035-.314.09-.824.092-1.33 0-.289-.017-.554-.06-.767-.046-.229-.106-.32-.129-.341-.03-.03-.134-.09-.367-.137a4.3 4.3 0 0 0-.775-.066 13 13 0 0 0-1.408.088z"/><path d="M19.43.502a.507.507 0 0 1-.004.715L.861 19.617a.505.505 0 1 1-.711-.72L18.715.498a.505.505 0 0 1 .715.004"/><path d="M5.623 2.477h.505v11.19h11.268v.505H5.623z"/><path d="M10.188 1.188h.505v7.96h8.091v.505h-8.596z"/></svg>
